X:1
T: J.O. Forbes of Corse
C:Peter Milne
R:Strathspey
Q: 128
K:E
M:4/4
L:1/16
|:A2|G3B E3G A3c F3A|GB3 c3d e6d2|c3e B3e A3e Ge3|Ff3 f3e dedc BcBA|
G3B E3G A3c F3A|GB3 g3f e6d2|c3e B3e A3e Ge3|G3E F3D E4-E2a2|
gaba ge3 ce3 ac'3|Be3 gb3 Bd3 f3a|gaba ge3 ce3 ac'3|be3 g3f e4 e2a2|
gaba ge3 ce3 ac'3|Be3 gb3 Bd3 f3a|((3g2f2e2) ((3d2e2f2) ((3e2B2A2) ((3G2A2B2) |((3c2d2e2) ((3d2e2f2) ge3 e2:|
